docs/images/icons/viber.svg

<svg width="18" height="18" viewBox="0 0 18 18" fill="none" xmlns="http://www.w3.org/2000/svg">
<path d="M9.08301 0.333252C4.25511 0.333252 0.333008 4.25536 0.333008 9.08325C0.333008 10.6351 0.758595 12.0833 1.46837 13.3475L0.347126 17.3503C0.329213 17.4143 0.328403 17.482 0.344778 17.5464C0.361153 17.6109 0.39414 17.6699 0.44045 17.7177C0.48676 17.7654 0.544775 17.8002 0.608711 17.8185C0.672647 17.8368 0.740269 17.8381 0.804836 17.8221L4.97847 16.7878C6.20488 17.4425 7.59649 17.8333 9.08301 17.8333C13.9109 17.8333 17.833 13.9111 17.833 9.08325C17.833 4.25536 13.9109 0.333252 9.08301 0.333252ZM9.08301 1.09412C13.4997 1.09412 17.0721 4.66658 17.0721 9.08325C17.0721 13.4999 13.4997 17.0724 9.08301 17.0724C7.66704 17.0724 6.34088 16.7032 5.18801 16.0581C5.10369 16.011 5.00461 15.9977 4.91086 16.021L1.25586 16.9267L2.23592 13.43C2.24995 13.3806 2.25382 13.3289 2.24731 13.2779C2.2408 13.227 2.22403 13.1778 2.19803 13.1335C1.4974 11.9455 1.09388 10.5632 1.09388 9.08325C1.09388 4.66658 4.66634 1.09412 9.08301 1.09412ZM5.90355 4.51803C5.65968 4.51803 5.31139 4.60876 5.02528 4.91705C4.85344 5.10221 4.13736 5.79991 4.13736 7.02653C4.13736 8.30537 5.0243 9.40885 5.13154 9.55062H5.13228V9.55136C5.12211 9.538 5.2684 9.74985 5.46368 10.0039C5.65895 10.2579 5.93202 10.5915 6.27507 10.9527C6.96118 11.6751 7.92583 12.51 9.12313 13.0206C9.6745 13.2554 10.1095 13.3972 10.439 13.5006C11.0498 13.6924 11.6061 13.6632 12.0239 13.6017C12.3367 13.5556 12.6807 13.4054 13.0211 13.19C13.3615 12.9746 13.6951 12.7068 13.8422 12.2999C13.9475 12.0081 14.0011 11.7385 14.0205 11.5167C14.0302 11.4058 14.0314 11.3079 14.0242 11.2173C14.017 11.1266 14.0247 11.0572 13.9402 10.9186C13.7631 10.6277 13.5625 10.6202 13.3532 10.5166C13.237 10.459 12.9059 10.2973 12.5738 10.1391C12.2421 9.98105 11.9549 9.84106 11.778 9.77799C11.6663 9.73779 11.5298 9.67991 11.3329 9.7022C11.1361 9.72449 10.9416 9.86654 10.8284 10.0343C10.7211 10.1934 10.2891 10.7033 10.1574 10.8532C10.1557 10.8521 10.1671 10.8574 10.1151 10.8316C9.95221 10.751 9.75301 10.6825 9.45824 10.527C9.16347 10.3715 8.79473 10.1419 8.39124 9.78616V9.78542C7.79068 9.25671 7.37001 8.59291 7.2373 8.36994C7.24624 8.3593 7.23624 8.37218 7.25514 8.35359L7.25588 8.35285C7.39151 8.21926 7.51171 8.0597 7.61328 7.94269C7.75729 7.77679 7.82084 7.63054 7.88969 7.4939C8.0269 7.22157 7.9505 6.9219 7.87111 6.76423V6.76349C7.8766 6.7744 7.82817 6.66755 7.77601 6.5443C7.72369 6.42069 7.65701 6.26044 7.58579 6.08956C7.44335 5.74779 7.28432 5.36447 7.18975 5.13996V5.13921C7.07834 4.87476 6.92761 4.68425 6.73055 4.59234C6.53349 4.50043 6.35939 4.52656 6.35235 4.52621H6.3516C6.21098 4.51972 6.05666 4.51803 5.90355 4.51803ZM5.90355 5.2789C6.05023 5.2789 6.19483 5.28069 6.31594 5.28633C6.44053 5.29254 6.43278 5.29305 6.40882 5.28188C6.38447 5.27052 6.4175 5.26684 6.48832 5.43494C6.58093 5.65478 6.74074 6.03949 6.88362 6.38231C6.95506 6.55373 7.02192 6.71459 7.07532 6.84077C7.12872 6.96694 7.15766 7.03739 7.19124 7.10455V7.10529L7.19198 7.10603C7.2249 7.17099 7.22199 7.1294 7.21056 7.1521C7.13027 7.31144 7.11938 7.35056 7.03817 7.44411C6.91452 7.58656 6.7884 7.74542 6.72164 7.81117C6.66323 7.86855 6.55784 7.95794 6.49204 8.13291C6.42614 8.30815 6.45689 8.54858 6.56263 8.72808C6.7034 8.96707 7.16729 9.72212 7.8882 10.3568C8.34221 10.757 8.76518 11.0219 9.10307 11.2002C9.44096 11.3784 9.71617 11.4825 9.77775 11.513C9.92398 11.5854 10.0838 11.6416 10.2696 11.6192C10.4555 11.5969 10.6157 11.4842 10.7177 11.3688L10.7184 11.3681C10.8542 11.2142 11.2575 10.7536 11.4511 10.4698C11.4593 10.4726 11.4566 10.4704 11.5209 10.4935V10.4943H11.5217C11.551 10.5047 11.9189 10.6694 12.2469 10.8257C12.5748 10.982 12.9077 11.1444 13.0159 11.1979C13.172 11.2752 13.2458 11.3255 13.2648 11.3257C13.2661 11.3592 13.2674 11.3955 13.2626 11.4506C13.2492 11.6034 13.2084 11.8149 13.1266 12.0413C13.0865 12.1521 12.8779 12.3807 12.6147 12.5473C12.3515 12.7138 12.0311 12.8315 11.9125 12.849C11.5558 12.9015 11.1323 12.9207 10.6672 12.7747C10.3447 12.6734 9.94253 12.5424 9.42183 12.3207C8.36582 11.8703 7.46829 11.1039 6.82715 10.4289C6.50658 10.0914 6.24974 9.77717 6.06702 9.53948C5.88464 9.30222 5.805 9.17876 5.7386 9.09142L5.73786 9.09068C5.61999 8.93481 4.89823 7.93086 4.89823 7.02653C4.89823 6.06944 5.34276 5.69412 5.5833 5.43494C5.70959 5.29888 5.84764 5.2789 5.90355 5.2789Z" fill="#333333"/>
</svg>

<svg width="18" height="18" fill="none" xmlns="http://www.w3.org/2000/svg"><path d="M9.083.333c-4.828 0-8.75 3.922-8.75 8.75 0 1.552.426 3 1.135 4.264L.348 17.35a.38.38 0 0 0 .457.472l4.173-1.034a8.688 8.688 0 0 0 4.105 1.045c4.828 0 8.75-3.922 8.75-8.75 0-4.828-3.922-8.75-8.75-8.75Zm0 .761a7.983 7.983 0 0 1 7.99 7.99 7.983 7.983 0 0 1-7.99 7.988 7.947 7.947 0 0 1-3.895-1.014.38.38 0 0 0-.277-.037l-3.655.906.98-3.497a.38.38 0 0 0-.038-.296 7.943 7.943 0 0 1-1.104-4.05 7.984 7.984 0 0 1 7.989-7.99Zm-3.18 3.424c-.243 0-.592.09-.878.399-.172.185-.888.883-.888 2.11 0 1.278.887 2.382.995 2.524a12.054 12.054 0 0 0 1.143 1.401c.686.723 1.65 1.558 2.848 2.069.552.234.987.376 1.316.48a3.51 3.51 0 0 0 1.585.1c.313-.045.657-.196.997-.411.34-.215.674-.483.821-.89.105-.292.16-.562.178-.783.01-.111.011-.21.004-.3-.007-.09 0-.16-.084-.298-.177-.291-.377-.299-.587-.402-.116-.058-.447-.22-.78-.378-.33-.158-.618-.298-.795-.361-.112-.04-.248-.098-.445-.076-.197.022-.391.165-.505.332-.107.16-.539.67-.67.82-.002-.002.01.003-.043-.022-.163-.081-.362-.15-.657-.305a5.433 5.433 0 0 1-1.067-.74v-.002c-.6-.528-1.021-1.192-1.154-1.415.01-.01 0 .002.018-.016v-.001c.137-.134.257-.293.358-.41.144-.166.208-.312.277-.45.137-.271.06-.571-.019-.729.006.01-.043-.096-.095-.22l-.19-.454-.396-.95c-.112-.265-.262-.456-.46-.548-.197-.092-.37-.065-.378-.066a9.963 9.963 0 0 0-.448-.008Zm0 .76c.147 0 .292.003.413.008.125.007.117.007.093-.004-.025-.011.009-.015.08.153l.395.947.191.459c.054.126.083.196.116.264l.001.001c.033.065.03.023.019.046-.08.16-.092.199-.173.292-.123.143-.25.301-.316.367-.059.058-.164.147-.23.322a.736.736 0 0 0 .07.595c.141.24.605.994 1.326 1.629.454.4.877.665 1.215.843.338.178.613.283.675.313a.854.854 0 0 0 .492.106.74.74 0 0 0 .448-.25c.136-.155.54-.615.733-.9.008.004.006.001.07.024v.001c.03.01.398.175.726.332.328.156.66.318.769.372.156.077.23.127.249.128a.895.895 0 0 1-.002.125 2.424 2.424 0 0 1-.136.59c-.04.111-.25.34-.512.506-.264.167-.584.284-.703.302a2.72 2.72 0 0 1-1.245-.074 12.742 12.742 0 0 1-1.245-.454c-1.056-.45-1.954-1.217-2.595-1.892-.32-.338-.577-.652-.76-.89-.182-.237-.262-.36-.328-.448h-.001c-.118-.156-.84-1.16-.84-2.064 0-.958.445-1.333.685-1.592a.451.451 0 0 1 .32-.156Z" fill="#333"/></svg>
